X:14592
T:Route 19
R:reel
C:Brenda Stubbert, SOCAN
O:20th century Cape Breton
S:Tune ofthe Month, October 2000
A:http://www.capebretonisland.com/Music/Stubbert
N:Contacts ...
N:..... <brenda@cranfordpub.com
N:Tune books and related recordings
N:..... Cranford Publications <http://www.cranfordpub.com>
H:Copyrights:Published by Stubbert Music, and Cranford Publications
Z:Paul Stewart Cranford 
Q:288
L:1/8
M:C|
K:Gdor
GFDF G2 AG|FDCD FGAF|GFDF Gbag|1fdcA G2 BA:|2fdcA G2 G2||!
gfdf g2 ag|fdcd fgaf|gfdf gbag|fdcA d2 cA|!
gfdf g2 ag|fdcd fgaf|bgaf gbag|fdcA G2 BA|]!
